chrome/icons/lock.svg

<svg height="16" viewBox="128 0 768 1024" width="16" xmlns="http://www.w3.org/2000/svg" xmlns:xlink="http://www.w3.org/1999/xlink">
  <path d="M896,512L896,896C896,913.667 892.667,930.25 886,945.75C879.333,961.25 870.167,974.833 858.5,986.5C846.833,998.167 833.25,1007.33 817.75,1014C802.25,1020.67 785.667,1024 768,1024L256,1024C238.333,1024 221.75,1020.67 206.25,1014C190.75,1007.33 177.167,998.167 165.5,986.5C153.833,974.833 144.667,961.25 138,945.75C131.333,930.25 128,913.667 128,896L128,512C128,494.333 131.333,477.75 138,462.25C144.667,446.75 153.833,433.167 165.5,421.5C177.167,409.833 190.75,400.667 206.25,394C221.75,387.333 238.333,384 256,384L256,256C256,220.667 262.667,187.417 276,156.25C289.333,125.083 307.583,97.9167 330.75,74.75C353.917,51.5834 381.083,33.3334 412.25,20C443.417,6.66669 476.667,0 512,0C547.333,0 580.583,6.66669 611.75,20C642.917,33.3334 670.083,51.5834 693.25,74.75C716.417,97.9167 734.667,125.083 748,156.25C761.333,187.417 768,220.667 768,256L768,384C785.667,384 802.25,387.333 817.75,394C833.25,400.667 846.833,409.833 858.5,421.5C870.167,433.167 879.333,446.75 886,462.25C892.667,477.75 896,494.333 896,512ZM320,384L704,384L704,256C704,229.333 699,204.333 689,181C679,157.667 665.333,137.333 648,120C630.667,102.667 610.333,89.0001 587,79C563.667,69.0001 538.667,64.0001 512,64C485.333,64.0001 460.333,69.0001 437,79C413.667,89.0001 393.333,102.667 376,120C358.667,137.333 345,157.667 335,181C325,204.333 320,229.333 320,256ZM832,512C832,503.333 830.333,495.083 827,487.25C823.667,479.417 819.083,472.583 813.25,466.75C807.417,460.917 800.583,456.333 792.75,453C784.917,449.667 776.667,448 768,448L256,448C247,448 238.667,449.667 231,453C223.333,456.333 216.583,460.917 210.75,466.75C204.917,472.583 200.333,479.333 197,487C193.667,494.667 192,503 192,512L192,896C192,905 193.667,913.417 197,921.25C200.333,929.083 204.833,935.833 210.5,941.5C216.167,947.167 222.917,951.667 230.75,955C238.583,958.333 247,960 256,960L768,960C777,960 785.333,958.333 793,955C800.667,951.667 807.417,947.083 813.25,941.25C819.083,935.417 823.667,928.667 827,921C830.333,913.333 832,905 832,896ZM576,704C576,713 574.333,721.333 571,729C567.667,736.667 563.083,743.417 557.25,749.25C551.417,755.083 544.667,759.667 537,763C529.333,766.333 521,768 512,768C503,768 494.583,766.333 486.75,763C478.917,759.667 472.167,755.167 466.5,749.5C460.833,743.833 456.333,737.083 453,729.25C449.667,721.417 448,713 448,704C448,695 449.667,686.667 453,679C456.333,671.333 460.917,664.583 466.75,658.75C472.583,652.917 479.333,648.333 487,645C494.667,641.667 503,640 512,640C520.667,640 528.917,641.667 536.75,645C544.583,648.333 551.417,652.917 557.25,658.75C563.083,664.583 567.667,671.417 571,679.25C574.333,687.083 576,695.333 576,704Z" fill="context-fill" fill-opacity="context-fill-opacity">
  </path>
</svg>

<svg xmlns="http://www.w3.org/2000/svg" width="16" height="16" viewBox="128 0 768 1024"><path fill="context-fill" fill-opacity="context-fill-opacity" d="M896 512v384q0 26.5-10 49.75t-27.5 40.75c-11.667 11.667-25.25 20.83-40.75 27.5s-32.083 10-49.75 10H256c-17.667 0-34.25-3.33-49.75-10s-29.083-15.833-40.75-27.5Q148 969 138 945.75T128 896V512q0-26.5 10-49.75t27.5-40.75 40.75-27.5T256 384V256q0-53 20-99.75t54.75-81.5T412.25 20 512 0t99.75 20 81.5 54.75 54.75 81.5T768 256v128q26.5 0 49.75 10t40.75 27.5 27.5 40.75T896 512M320 384h384V256q0-40-15-75t-41-61-61-41-75-15-75 15-61 41-41 61-15 75Zm512 128q0-13-5-24.75t-13.75-20.5-20.5-13.75-24.75-5H256q-13.5 0-25 5t-20.25 13.75T197 487t-5 25v384q0 13.5 5 25.25t13.5 20.25 20.25 13.5 25.25 5h512q13.5 0 25-5t20.25-13.75T827 921t5-25ZM576 704q0 13.5-5 25t-13.75 20.25T537 763t-25 5-25.25-5-20.25-13.5-13.5-20.25-5-25.25 5-25 13.75-20.25T487 645t25-5q13 0 24.75 5t20.5 13.75 13.75 20.5 5 24.75"/></svg>
